build_files/files/usr/share/icons/hicolor/scalable/start-here-dark.svg

<?xml version="1.0" encoding="UTF-8" standalone="no"?>
<svg
   xmlns:dc="http://purl.org/dc/elements/1.1/"
   xmlns:cc="http://creativecommons.org/ns#"
   xmlns:rdf="http://www.w3.org/1999/02/22-rdf-syntax-ns#"
   xmlns:svg="http://www.w3.org/2000/svg"
   xmlns="http://www.w3.org/2000/svg"
   xmlns:sodipodi="http://sodipodi.sourceforge.net/DTD/sodipodi-0.dtd"
   xmlns:inkscape="http://www.inkscape.org/namespaces/inkscape"
   viewBox="0 0 500 500"
   width="500px"
   height="500px"
   version="1.1"
   id="svg18"
   sodipodi:docname="start-here-dark.svg"
   inkscape:version="1.0.1 (3bc2e813f5, 2020-09-07)">
  <metadata
     id="metadata22">
    <rdf:RDF>
      <cc:Work
         rdf:about="">
        <dc:format>image/svg+xml</dc:format>
        <dc:type
           rdf:resource="http://purl.org/dc/dcmitype/StillImage" />
        <dc:title></dc:title>
      </cc:Work>
    </rdf:RDF>
  </metadata>
  <sodipodi:namedview
     pagecolor="#ffffff"
     bordercolor="#666666"
     borderopacity="1"
     objecttolerance="10"
     gridtolerance="10"
     guidetolerance="10"
     inkscape:pageopacity="0"
     inkscape:pageshadow="2"
     inkscape:window-width="1680"
     inkscape:window-height="979"
     id="namedview20"
     showgrid="false"
     inkscape:zoom="1.47"
     inkscape:cx="250"
     inkscape:cy="250"
     inkscape:window-x="-8"
     inkscape:window-y="-8"
     inkscape:window-maximized="1"
     inkscape:current-layer="g14" />
  <defs
     id="defs2" />
  <g
     id="g16">
    <g
       transform="translate(1.481003,7.005005)"
       id="g14"
       style="fill:none">
      <path
         style="fill:none;stroke:#000000;stroke-width:24px;stroke-linecap:round;stroke-linejoin:round"
         d="m 155.691,119.036 c 0,0 23.721,10.615 37.591,22.43 13.87,11.815 14.323,29.239 23.578,39.05 9.255,9.811 9.989,15.497 31.651,31.602 21.662,16.105 40.272,25.487 47.025,32.24 6.753,6.753 33.199,21.963 49.23,39.042 16.031,17.079 33.496,44.456 34.28,45.938 0.784,1.482 -54.791,-23.802 -82.531,-39.841 -27.74,-16.039 -53.251,-33.371 -68.023,-45.281 -14.772,-11.91 -16.709,-15.614 -16.709,-15.614 0,0 17.815,-25.502 22.333,-29.079"
         id="path4" />
      <path
         style="fill:none;stroke:#000000;stroke-width:24px;stroke-linecap:round;stroke-linejoin:round;paint-order:stroke"
         d="m 214.667,226.757 c 0,0 -27.738,29.221 -40.805,44.539 -20.451,23.973 -47.006,56.212 -47.006,56.212"
         id="path6" />
      <path
         style="fill:none;stroke:#000000;stroke-width:24px;stroke-linecap:round;stroke-linejoin:round"
         d="m 188.449,256.447 c 0,0 -1.584,19.886 0.491,45.21 2.075,25.324 12.621,61.192 12.621,61.192"
         id="path8" />
      <path
         style="fill:#000000;stroke:#000000;stroke-width:24px;stroke-linecap:round;stroke-linejoin:round"
         d="m 313.055,300.382 c 0,0 -11.685,2.105 -14.354,42.271 -2.669,40.166 3.352,42.632 3.401,42.371"
         id="path10" />
      <circle
         style="fill:none;stroke:#000000;stroke-width:24px"
         cx="248.519"
         cy="242.995"
         id="ellipse12"
         r="200.83099" />
    </g>
  </g>
</svg>

<?xml version="1.0" encoding="utf-8"?>
<svg xmlns="http://www.w3.org/2000/svg" viewBox="0 0 500 500" xmlns:bx="https://boxy-svg.com" width="500px" height="500px"><defs/><g style="" transform="matrix(1.121279, 0, 0, 1.121279, -30.319751, -30.319751)"><g transform="matrix(1, 0, 0, 1, 1.481003, 7.005005)"><path style="fill: none; stroke: rgb(255, 255, 255); stroke-linecap: round; stroke-linejoin: round; stroke-width: 24px;" d="M 155.691 119.036 C 155.691 119.036 179.412 129.651 193.282 141.466 C 207.152 153.281 207.605 170.705 216.86 180.516 C 226.115 190.327 226.849 196.013 248.511 212.118 C 270.173 228.223 288.783 237.605 295.536 244.358 C 302.289 251.111 328.735 266.321 344.766 283.4 C 360.797 300.479 378.262 327.856 379.046 329.338 C 379.83 330.82 324.255 305.536 296.515 289.497 C 268.775 273.458 243.264 256.126 228.492 244.216 C 213.72 232.306 211.783 228.602 211.783 228.602 C 211.783 228.602 229.598 203.1 234.116 199.523"/><path style="fill: none; paint-order: stroke; stroke: rgb(255, 255, 255); stroke-linecap: round; stroke-linejoin: round; stroke-width: 24px;" d="M 214.667 226.757 C 214.667 226.757 186.929 255.978 173.862 271.296 C 153.411 295.269 126.856 327.508 126.856 327.508"/><path style="fill: none; stroke: rgb(255, 255, 255); stroke-linejoin: round; stroke-linecap: round; stroke-width: 24px;" d="M 188.449 256.447 C 188.449 256.447 186.865 276.333 188.94 301.657 C 191.015 326.981 201.561 362.849 201.561 362.849"/><path style="fill: none; stroke: rgb(255, 255, 255); stroke-linecap: round; stroke-linejoin: round; stroke-width: 24px;" d="M 313.055 300.382 C 313.055 300.382 301.37 302.487 298.701 342.653 C 296.032 382.819 302.053 385.285 302.102 385.024"/><ellipse style="fill: none; stroke: rgb(255, 255, 255); stroke-width: 24px;" cx="248.519" cy="242.995" rx="200.831" ry="200.831"/></g></g></svg>
